X:910
T:Anglais efter Per Nilsson Dahlberg
T:(SvL Skåne nr. 236)
S:efter Per Nilsson Dahlberg
S:Svenska Låtar Skåne nr 236
B:Svenska Låtar Skåne
R:Anglais
Z:Patrik Månsson, 2009-01-03
O:Nymö, Skåne
M:2/4
L:1/16
K:Bb
|: B,DFB d2B2 | ABcd g2f2 | (fe)gf (fe)ec | (ed)cd B4 :|
|: b2Bd f2gf | (ed)cd e4 | CFAc d2e2 | (gf)ec B4 :|

(:musicend:)


(:music:)
